X:1
T:Earl's Chair, The
R:reel
D:Patrick Street 1. Mary MacNamara.
%%printtempo 0
Q:180
M:C|
L:1/8
K:D
A|\
"Bm"B3 B BAFA|B2dB BAFB|"D"AF (3.F.F.F DF (3.F.F.F| AFdB ADFA|
"Bm"B2dB BAFA|B2dB BAFB|"D"AFAB defd|"A" edef "D"d3:|
|:f|\
|"A"e3f "D"d2df|"A"edef "D"dBA2|"A"e3f "D"dcde|"D"fedB "A"ADFA|
"A"e2ef eB (3.B.B.B|"G"gB (3.B.B.B defg|"D"afbf afeg|"G"fedB "D"A2 A:|
